img/interfones.svg

<svg version="1.1" id="Layer_1" xmlns="http://www.w3.org/2000/svg" x="0" y="0" viewBox="0 0 38 38" xml:space="preserve"><style>.st1{fill:#fff}</style><path class="st1" d="M30.5 4.3h-23c-.5 0-.9.4-.9.9v27.6c0 .5.4.9.9.9h23c.5 0 .9-.4.9-.9V5.2c0-.5-.4-.9-.9-.9zm-.9 27.6H8.4V6.1h21.2v25.8z"/><path class="st1" d="M11.2 21.3h15.7c.5 0 .9-.4.9-.9V8.9c0-.5-.4-.9-.9-.9H11.2c-.5 0-.9.4-.9.9v11.5c0 .5.4.9.9.9zm5.3-1.8c.3-1.1 1.3-1.8 2.5-1.8s2.2.8 2.5 1.8h-5zm2.5-4.6c-.5 0-.9-.4-.9-.9s.4-.9.9-.9.9.4.9.9c0 .4-.4.9-.9.9zm-6.9-5.1h13.8v9.7h-2.5l-.1-.3c-.4-1.4-1.3-2.5-2.6-3 2.1-1.6.9-4.9-1.7-4.9s-3.8 3.3-1.7 4.9c-1.3.5-2.3 1.6-2.6 3l-.1.3h-2.5V9.8z"/><circle class="st1" cx="11.6" cy="23.6" r=".9"/><circle class="st1" cx="11.6" cy="26.4" r=".9"/><circle class="st1" cx="11.6" cy="29.1" r=".9"/><circle class="st1" cx="14.9" cy="23.6" r=".9"/><circle class="st1" cx="14.9" cy="26.4" r=".9"/><circle class="st1" cx="14.9" cy="29.1" r=".9"/><circle class="st1" cx="18.1" cy="23.6" r=".9"/><circle class="st1" cx="18.1" cy="26.4" r=".9"/><circle class="st1" cx="18.1" cy="29.1" r=".9"/><path class="st1" d="M24.1 23.6c-1.5 0-2.8 1.2-2.8 2.8s1.2 2.8 2.8 2.8 2.8-1.2 2.8-2.8-1.3-2.8-2.8-2.8zm0 3.7c-.5 0-.9-.4-.9-.9s.4-.9.9-.9.9.4.9.9-.4.9-.9.9z"/></svg>

<?xml version="1.0" encoding="utf-8"?>
<!-- Generator: Adobe Illustrator 24.2.3, SVG Export Plug-In . SVG Version: 6.00 Build 0)  -->
<svg version="1.1" id="Layer_1" xmlns="http://www.w3.org/2000/svg" xmlns:xlink="http://www.w3.org/1999/xlink" x="0px" y="0px"
	 viewBox="0 0 38 38" style="enable-background:new 0 0 38 38;" xml:space="preserve">
<style type="text/css">
	.st0{fill:#090909;}
	.st1{fill:#FFFFFF;}
	.st2{fill:#FFFFFF;stroke:#090909;stroke-miterlimit:10;}
</style>
<g>
	<path class="st1" d="M30.5,4.3h-23C7,4.3,6.6,4.7,6.6,5.2v27.6c0,0.5,0.4,0.9,0.9,0.9h23c0.5,0,0.9-0.4,0.9-0.9V5.2
		C31.4,4.7,31,4.3,30.5,4.3z M29.6,31.9H8.4V6.1h21.2V31.9z"/>
	<path class="st1" d="M11.2,21.3h15.7c0.5,0,0.9-0.4,0.9-0.9V8.9c0-0.5-0.4-0.9-0.9-0.9H11.2c-0.5,0-0.9,0.4-0.9,0.9v11.5
		C10.3,20.9,10.7,21.3,11.2,21.3z M16.5,19.5c0.3-1.1,1.3-1.8,2.5-1.8s2.2,0.8,2.5,1.8H16.5z M19,14.9c-0.5,0-0.9-0.4-0.9-0.9
		c0-0.5,0.4-0.9,0.9-0.9s0.9,0.4,0.9,0.9C19.9,14.4,19.5,14.9,19,14.9z M12.1,9.8h13.8v9.7h-2.5l-0.1-0.3c-0.4-1.4-1.3-2.5-2.6-3
		c2.1-1.6,0.9-4.9-1.7-4.9c-2.6,0-3.8,3.3-1.7,4.9c-1.3,0.5-2.3,1.6-2.6,3l-0.1,0.3h-2.5V9.8z"/>
	<circle class="st1" cx="11.6" cy="23.6" r="0.9"/>
	<circle class="st1" cx="11.6" cy="26.4" r="0.9"/>
	<circle class="st1" cx="11.6" cy="29.1" r="0.9"/>
	<circle class="st1" cx="14.9" cy="23.6" r="0.9"/>
	<circle class="st1" cx="14.9" cy="26.4" r="0.9"/>
	<circle class="st1" cx="14.9" cy="29.1" r="0.9"/>
	<circle class="st1" cx="18.1" cy="23.6" r="0.9"/>
	<circle class="st1" cx="18.1" cy="26.4" r="0.9"/>
	<circle class="st1" cx="18.1" cy="29.1" r="0.9"/>
	<path class="st1" d="M24.1,23.6c-1.5,0-2.8,1.2-2.8,2.8s1.2,2.8,2.8,2.8s2.8-1.2,2.8-2.8S25.6,23.6,24.1,23.6z M24.1,27.3
		c-0.5,0-0.9-0.4-0.9-0.9s0.4-0.9,0.9-0.9c0.5,0,0.9,0.4,0.9,0.9S24.6,27.3,24.1,27.3z"/>
</g>
</svg>
